X: 040009
T: Drunken Landlady
R: reel
M: 4/4
L: 1/8
S: Mary Bergin
Z: B.Black
K: Edor
A | BE E2 BAFA|BE E2 BAFA |ABAF D2 FD |FAAd BAFA |
BE E2 BAFA | BE E2 BAFA | A2 Bc dfec | dBAF E3 :|
A | Beed e2 de|f2 df efdB |ABAF D2 FD |FAAd BAFA |
Beed e2 de | f2 df efdB | A2 Bc dfec | dBAF E3 :|
